X:1
T:Flowers Of Spring, The
M:6/8
L:1/8
R:jig
K:Ador
|:G | ABA ABd | edB G2A | BGG dGG | ABd edB |
ABA ABd | edB G2B | dBB gdB |1 ABA A2 :|2ABA AB|
|:d | eaa aga | ~b2b agd | ~e2g ged | ~e2g ged |
eza aga |~b3 age |dBB gdB | ABA A2:||
